Flat-Remix-Dark/apps/scalable/ccsm.svg

<svg xmlns="http://www.w3.org/2000/svg" xmlns:xlink="http://www.w3.org/1999/xlink" width="384pt" height="384pt" version="1.1" viewBox="0 0 384 384"> <defs> <filter id="alpha" width="100%" height="100%" x="0%" y="0%" filterUnits="objectBoundingBox"> <feColorMatrix in="SourceGraphic" type="matrix" values="0 0 0 0 1 0 0 0 0 1 0 0 0 0 1 0 0 0 1 0"/> </filter> <mask id="mask0"> <g filter="url(#alpha)"> <rect width="384" height="384" x="0" y="0" style="fill:rgb(0%,0%,0%);fill-opacity:0.301961"/> </g> </mask> <clipPath id="clip1"> <rect width="384" height="384" x="0" y="0"/> </clipPath> <g id="surface5" clip-path="url(#clip1)"> <path style="fill:rgb(0%,0%,0%)" d="M 192 105.316406 C 144.125 105.316406 105.316406 144.125 105.316406 192 C 105.316406 239.875 144.125 278.683594 192 278.683594 C 239.875 278.683594 278.683594 239.875 278.683594 192 C 278.683594 144.125 239.875 105.316406 192 105.316406 Z M 192 135.910156 C 222.976562 135.910156 248.089844 161.023438 248.089844 192 C 248.089844 222.976562 222.976562 248.089844 192 248.089844 C 161.023438 248.089844 135.910156 222.976562 135.910156 192 C 135.910156 161.023438 161.023438 135.910156 192 135.910156 Z M 192 135.910156"/> </g> </defs> <g> <path style="fill-rule:evenodd;fill:rgb(14.901%,35.294%,69.411%)" d="M 196.976562 38.25 C 189.433594 38.246094 181.335938 38.429688 173.136719 38.597656 C 168.5625 38.6875 163.484375 43.792969 163.496094 48.371094 C 163.527344 60.507812 164.105469 86.804688 164.105469 86.804688 C 164.105469 86.804688 150.503906 90.480469 143.996094 93.128906 C 138.179688 95.503906 127.183594 101.65625 127.183594 101.652344 C 127.183594 101.652344 112.160156 86.871094 99.175781 74.074219 C 96.375 71.316406 88.675781 72.046875 85.875 74.800781 C 62.953125 97.34375 68.621094 91.054688 59.085938 101.492188 C 55.980469 104.890625 56.53125 112.089844 59.847656 115.285156 C 69.261719 124.371094 86.917969 142.089844 86.917969 142.089844 C 86.917969 142.089844 79.933594 153.570312 77.351562 159.742188 C 74.816406 165.808594 71.605469 178.605469 71.605469 178.605469 C 71.605469 178.605469 46.386719 178.105469 33.765625 178.308594 C 28.988281 178.382812 22.960938 182.351562 22.941406 186.945312 C 22.914062 194.234375 22.8125 211.710938 22.71875 221.882812 C 22.625 232.054688 28.382812 235.6875 33.664062 235.660156 C 49.125 235.582031 71.449219 235.832031 71.449219 235.832031 C 71.449219 235.832031 75.003906 248.722656 77.53125 254.894531 C 80.011719 260.953125 86.402344 272.421875 86.402344 272.421875 C 86.402344 272.421875 68.933594 289.214844 60.609375 298.585938 C 57.285156 302.328125 56.476562 309.855469 59.820312 313.582031 C 68.742188 323.519531 77.714844 332.152344 86.164062 339.535156 C 90.214844 343.074219 98.246094 341.222656 102.171875 337.546875 C 109.050781 331.105469 126.925781 312.160156 126.925781 312.160156 C 126.925781 312.160156 138.367188 318.25 144.339844 320.742188 C 147.472656 322.050781 152.28125 323.714844 156.308594 325.054688 C 160.339844 326.394531 163.582031 327.402344 163.582031 327.402344 C 163.582031 327.402344 163.578125 333.457031 163.582031 341.066406 C 163.585938 348.679688 163.59375 357.851562 163.628906 364.089844 C 163.640625 366.585938 164.761719 369.476562 166.503906 371.746094 C 168.242188 374.019531 170.605469 375.667969 173.101562 375.691406 C 184.984375 375.785156 198.324219 375.753906 211.496094 375.683594 C 213.726562 375.675781 216.058594 374.003906 217.828125 371.777344 C 219.597656 369.550781 220.808594 366.773438 220.800781 364.542969 C 220.769531 358.40625 220.808594 348.65625 220.855469 340.445312 C 220.90625 332.234375 220.960938 325.558594 220.960938 325.558594 C 220.960938 325.558594 224.15625 324.847656 228.097656 323.8125 C 232.039062 322.777344 236.726562 321.414062 239.714844 320.117188 C 242.539062 318.890625 246.503906 316.527344 249.769531 314.46875 C 253.03125 312.414062 255.585938 310.660156 255.585938 310.660156 C 255.585938 310.660156 260.742188 315.867188 266.925781 322.046875 C 273.105469 328.222656 280.3125 335.367188 284.402344 339.238281 C 286.207031 340.949219 288.871094 341.847656 291.703125 341.714844 C 294.535156 341.582031 297.535156 340.414062 300.023438 337.996094 C 305.242188 332.917969 309.667969 328.636719 313.625 324.765625 C 317.582031 320.894531 321.074219 317.433594 324.417969 313.996094 C 326.0625 312.308594 326.996094 309.617188 327.113281 306.929688 C 327.226562 304.238281 326.519531 301.550781 324.871094 299.867188 C 320.25 295.140625 312.949219 287.851562 306.804688 281.742188 C 300.660156 275.636719 295.671875 270.707031 295.671875 270.707031 C 295.671875 270.707031 297.4375 268.03125 299.5 264.609375 C 301.5625 261.1875 303.921875 257.027344 305.109375 254.070312 C 306.308594 251.085938 307.492188 246.414062 308.371094 242.484375 C 309.253906 238.554688 309.839844 235.371094 309.839844 235.371094 C 309.839844 235.371094 337.527344 236.007812 350.152344 235.5625 C 354.847656 235.398438 360.734375 231.140625 360.894531 226.445312 C 361.371094 212.632812 361.394531 201.554688 361.035156 189.089844 C 360.816406 181.550781 355.695312 178.460938 347.820312 178.527344 C 337.589844 178.617188 310.46875 178.988281 310.46875 178.988281 C 310.46875 178.988281 307.546875 166.589844 305.1875 160.703125 C 302.769531 154.664062 296.15625 143.398438 296.15625 143.398438 C 296.15625 143.398438 314.535156 125.046875 323.480469 115.632812 C 329.574219 109.214844 325.800781 101.410156 323.726562 99.535156 C 315.113281 91.726562 306.269531 81.929688 298.949219 74.988281 C 295.371094 71.589844 287.804688 71.21875 284.152344 74.539062 C 276.683594 81.328125 266.195312 92.78125 256.5 102.417969 C 256.5 102.417969 244.957031 95.710938 238.78125 93.242188 C 232.953125 90.910156 220.699219 87.980469 220.699219 87.980469 C 220.699219 87.980469 221.160156 61.304688 220.703125 47.878906 C 220.546875 43.292969 214.441406 38.722656 209.863281 38.496094 C 205.828125 38.320312 201.503906 38.25 196.976562 38.25 Z M 192 127.476562 C 227.632812 127.476562 256.523438 156.367188 256.523438 192 C 256.496094 197.464844 255.773438 202.90625 254.375 208.191406 C 253.726562 242.183594 226 269.410156 192 269.433594 C 158.03125 269.417969 130.3125 242.246094 129.609375 208.289062 C 128.207031 202.972656 127.492188 197.496094 127.476562 192 C 127.476562 156.367188 156.367188 127.476562 192 127.476562 Z M 192 127.476562"/> <path style="fill-rule:evenodd;fill:rgb(44.705%,63.529%,95.686%)" d="M 196.976562 23.25 C 189.433594 23.246094 181.335938 23.429688 173.136719 23.597656 C 168.5625 23.6875 163.484375 28.792969 163.496094 33.371094 C 163.527344 45.507812 164.101562 71.804688 164.101562 71.804688 C 164.101562 71.804688 150.503906 75.480469 143.996094 78.128906 C 138.179688 80.503906 127.183594 86.65625 127.183594 86.65625 C 127.183594 86.65625 112.160156 71.871094 99.175781 59.074219 C 96.375 56.316406 88.675781 57.046875 85.875 59.800781 C 62.953125 82.34375 68.621094 76.054688 59.085938 86.492188 C 55.980469 89.890625 56.53125 97.089844 59.847656 100.285156 C 69.261719 109.371094 86.917969 127.089844 86.917969 127.089844 C 86.917969 127.089844 79.933594 138.570312 77.351562 144.742188 C 74.816406 150.808594 71.605469 163.605469 71.605469 163.605469 C 71.605469 163.605469 46.382812 163.105469 33.765625 163.308594 C 28.988281 163.382812 22.960938 167.351562 22.941406 171.945312 C 22.914062 179.234375 22.8125 196.710938 22.71875 206.882812 C 22.625 217.054688 28.382812 220.6875 33.664062 220.660156 C 49.125 220.582031 71.449219 220.835938 71.449219 220.835938 C 71.449219 220.835938 75.003906 233.722656 77.53125 239.894531 C 80.011719 245.953125 86.402344 257.421875 86.402344 257.421875 C 86.402344 257.421875 68.933594 274.214844 60.609375 283.585938 C 57.28125 287.328125 56.476562 294.855469 59.820312 298.582031 C 68.742188 308.519531 77.714844 317.152344 86.164062 324.535156 C 90.214844 328.074219 98.246094 326.222656 102.171875 322.546875 C 109.050781 316.105469 126.925781 297.160156 126.925781 297.160156 C 126.925781 297.160156 138.367188 303.25 144.339844 305.742188 C 147.472656 307.050781 152.28125 308.714844 156.308594 310.054688 C 160.339844 311.394531 163.582031 312.40625 163.582031 312.40625 C 163.582031 312.40625 163.578125 318.457031 163.582031 326.066406 C 163.585938 333.679688 163.59375 342.851562 163.628906 349.089844 C 163.640625 351.585938 164.761719 354.476562 166.503906 356.746094 C 168.242188 359.019531 170.605469 360.667969 173.101562 360.691406 C 184.984375 360.785156 198.324219 360.753906 211.496094 360.683594 C 213.726562 360.675781 216.058594 359.003906 217.828125 356.777344 C 219.597656 354.550781 220.808594 351.773438 220.796875 349.542969 C 220.769531 343.402344 220.808594 333.65625 220.855469 325.445312 C 220.90625 317.234375 220.960938 310.558594 220.960938 310.558594 C 220.960938 310.558594 224.15625 309.847656 228.097656 308.8125 C 232.039062 307.777344 236.726562 306.414062 239.710938 305.117188 C 242.535156 303.890625 246.503906 301.527344 249.765625 299.46875 C 253.027344 297.410156 255.585938 295.660156 255.585938 295.660156 C 255.585938 295.660156 260.742188 300.867188 266.925781 307.046875 C 273.105469 313.222656 280.3125 320.367188 284.402344 324.238281 C 286.207031 325.949219 288.871094 326.847656 291.703125 326.714844 C 294.535156 326.582031 297.535156 325.414062 300.023438 322.996094 C 305.242188 317.917969 309.667969 313.636719 313.625 309.765625 C 317.582031 305.894531 321.074219 302.433594 324.417969 298.996094 C 326.058594 297.308594 326.996094 294.617188 327.113281 291.929688 C 327.226562 289.238281 326.519531 286.550781 324.871094 284.867188 C 320.25 280.140625 312.949219 272.851562 306.804688 266.742188 C 300.660156 260.636719 295.671875 255.707031 295.671875 255.707031 C 295.671875 255.707031 297.4375 253.027344 299.5 249.609375 C 301.5625 246.1875 303.921875 242.027344 305.109375 239.070312 C 306.308594 236.085938 307.492188 231.414062 308.371094 227.484375 C 309.253906 223.554688 309.835938 220.371094 309.835938 220.371094 C 309.835938 220.371094 337.527344 221.007812 350.152344 220.5625 C 354.847656 220.398438 360.734375 216.140625 360.894531 211.445312 C 361.371094 197.632812 361.394531 186.554688 361.035156 174.089844 C 360.816406 166.550781 355.695312 163.460938 347.820312 163.527344 C 337.589844 163.617188 310.46875 163.984375 310.46875 163.984375 C 310.46875 163.984375 307.546875 151.589844 305.1875 145.703125 C 302.769531 139.664062 296.15625 128.398438 296.15625 128.398438 C 296.15625 128.398438 314.535156 110.046875 323.476562 100.632812 C 329.574219 94.214844 325.800781 86.410156 323.726562 84.53125 C 315.113281 76.726562 306.269531 66.929688 298.949219 59.988281 C 295.371094 56.589844 287.804688 56.21875 284.152344 59.539062 C 276.683594 66.328125 266.195312 77.78125 256.5 87.414062 C 256.5 87.414062 244.957031 80.710938 238.78125 78.242188 C 232.953125 75.910156 220.699219 72.980469 220.699219 72.980469 C 220.699219 72.980469 221.160156 46.304688 220.703125 32.875 C 220.546875 28.292969 214.441406 23.722656 209.863281 23.496094 C 205.828125 23.320312 201.503906 23.25 196.976562 23.25 Z M 192 129.566406 C 226.480469 129.566406 254.433594 157.519531 254.433594 192 C 254.433594 226.480469 226.480469 254.433594 192 254.433594 C 157.519531 254.433594 129.566406 226.480469 129.566406 192 C 129.566406 157.519531 157.519531 129.566406 192 129.566406 Z M 192 129.566406"/> <use mask="url(#mask0)" xlink:href="#surface5"/> <path style="fill:rgb(14.901%,35.294%,69.411%)" d="M 192 105.316406 C 144.125 105.316406 105.316406 144.125 105.316406 192 C 105.316406 239.875 144.125 278.683594 192 278.683594 C 239.875 278.683594 278.683594 239.875 278.683594 192 C 278.683594 144.125 239.875 105.316406 192 105.316406 Z M 192 135.910156 C 222.976562 135.910156 248.089844 161.023438 248.089844 192 C 248.089844 222.976562 222.976562 248.089844 192 248.089844 C 161.023438 248.089844 135.910156 222.976562 135.910156 192 C 135.910156 161.023438 161.023438 135.910156 192 135.910156 Z M 192 135.910156"/> </g> </svg>

<svg width="512" height="512" version="1.1" viewBox="0 0 384 384" xmlns="http://www.w3.org/2000/svg" xmlns:xlink="http://www.w3.org/1999/xlink"><defs><clipPath id="c"><rect width="384" height="384"/></clipPath><g id="a" clip-path="url(#c)"><path d="m192 105.32c-47.875 0-86.684 38.809-86.684 86.684s38.809 86.684 86.684 86.684 86.684-38.809 86.684-86.684-38.809-86.684-86.684-86.684zm0 30.594c30.977 0 56.09 25.113 56.09 56.09s-25.113 56.09-56.09 56.09-56.09-25.113-56.09-56.09 25.113-56.09 56.09-56.09z"/></g><mask id="b"><g filter="url(#d)"><rect width="384" height="384" fill-opacity=".30196"/></g></mask><filter id="d" x="0" y="0" width="1" height="1"><feColorMatrix in="SourceGraphic" values="0 0 0 0 1 0 0 0 0 1 0 0 0 0 1 0 0 0 1 0"/></filter></defs><g transform="translate(.00050185 -7.4999)"><path d="m196.98 38.25c-7.543-0.0039-15.641 0.17969-23.84 0.34766-4.5742 0.08984-9.6524 5.1953-9.6406 9.7734 0.0312 12.137 0.60938 38.434 0.60938 38.434s-13.602 3.6758-20.109 6.3242c-5.8164 2.375-16.812 8.5273-16.812 8.5234 0 0-15.023-14.781-28.008-27.578-2.8008-2.7578-10.5-2.0273-13.301 0.72656-22.922 22.543-17.254 16.254-26.789 26.691-3.1055 3.3984-2.5547 10.598 0.76172 13.793 9.4141 9.0859 27.07 26.805 27.07 26.805s-6.9844 11.48-9.5664 17.652c-2.5352 6.0664-5.7461 18.863-5.7461 18.863s-25.219-0.5-37.84-0.29688c-4.7773 0.0742-10.805 4.043-10.824 8.6367-0.02734 7.2891-0.12891 24.766-0.22266 34.938s5.6641 13.805 10.945 13.777c15.461-0.0781 37.785 0.17187 37.785 0.17187s3.5547 12.891 6.082 19.062c2.4805 6.0586 8.8711 17.527 8.8711 17.527s-17.469 16.793-25.793 26.164c-3.3242 3.7422-4.1328 11.27-0.78906 14.996 8.9219 9.9375 17.895 18.57 26.344 25.953 4.0508 3.5391 12.082 1.6875 16.008-1.9883 6.8789-6.4414 24.754-25.387 24.754-25.387s11.441 6.0898 17.414 8.582c3.1328 1.3086 7.9414 2.9726 11.969 4.3125 4.0312 1.3398 7.2734 2.3476 7.2734 2.3476s-4e-3 6.0547 0 13.664c4e-3 7.6133 0.0117 16.785 0.0469 23.023 0.0117 2.4961 1.1328 5.3867 2.875 7.6562 1.7383 2.2734 4.1016 3.9219 6.5976 3.9453 11.883 0.0937 25.223 0.0625 38.395-8e-3 2.2305-8e-3 4.5625-1.6797 6.332-3.9062 1.7695-2.2266 2.9805-5.0039 2.9727-7.2344-0.0312-6.1367 8e-3 -15.887 0.0547-24.098 0.0508-8.2109 0.10547-14.887 0.10547-14.887s3.1953-0.71093 7.1367-1.7461c3.9414-1.0352 8.6289-2.3984 11.617-3.6953 2.8242-1.2266 6.7891-3.5898 10.055-5.6484 3.2617-2.0547 5.8164-3.8086 5.8164-3.8086s5.1562 5.207 11.34 11.387c6.1797 6.1758 13.387 13.32 17.477 17.191 1.8047 1.7109 4.4688 2.6094 7.3008 2.4766 2.832-0.13281 5.832-1.3008 8.3203-3.7188 5.2188-5.0781 9.6445-9.3594 13.602-13.23 3.957-3.8711 7.4492-7.332 10.793-10.77 1.6445-1.6875 2.5781-4.3789 2.6953-7.0664 0.11328-2.6914-0.59375-5.3789-2.2422-7.0625-4.6211-4.7266-11.922-12.016-18.066-18.125-6.1445-6.1055-11.133-11.035-11.133-11.035s1.7656-2.6758 3.8281-6.0977 4.4219-7.582 5.6094-10.539c1.1992-2.9844 2.3828-7.6562 3.2617-11.586 0.88282-3.9297 1.4688-7.1133 1.4688-7.1133s27.688 0.63672 40.312 0.19141c4.6953-0.16406 10.582-4.4219 10.742-9.1172 0.47656-13.812 0.5-24.891 0.14063-37.355-0.21875-7.5391-5.3398-10.629-13.215-10.562-10.23 0.0898-37.352 0.46094-37.352 0.46094s-2.9219-12.398-5.2812-18.285c-2.418-6.0391-9.0312-17.305-9.0312-17.305s18.379-18.352 27.324-27.766c6.0938-6.418 2.3203-14.223 0.24609-16.098-8.6133-7.8086-17.457-17.605-24.777-24.547-3.5781-3.3984-11.145-3.7695-14.797-0.44922-7.4688 6.7891-17.957 18.242-27.652 27.879 0 0-11.543-6.707-17.719-9.1758-5.8281-2.332-18.082-5.2617-18.082-5.2617s0.46094-26.676 4e-3 -40.102c-0.15625-4.5859-6.2617-9.1562-10.84-9.3828-4.0353-0.1756-8.3595-0.24591-12.887-0.24591zm-4.9766 89.227c35.633 0 64.523 28.891 64.523 64.523-0.0274 5.4648-0.75 10.906-2.1484 16.191-0.64844 33.992-28.375 61.219-62.375 61.242-33.969-0.0156-61.688-27.188-62.391-61.145-1.4023-5.3164-2.1172-10.793-2.1328-16.289 0-35.633 28.891-64.523 64.523-64.523z" fill="#2359b0" fill-rule="evenodd"/><path d="m196.98 23.25c-7.543-0.0039-15.641 0.17969-23.84 0.34766-4.5742 0.08984-9.6524 5.1953-9.6406 9.7734 0.0312 12.137 0.60547 38.434 0.60547 38.434s-13.598 3.6758-20.105 6.3242c-5.8164 2.375-16.812 8.5273-16.812 8.5273s-15.023-14.785-28.008-27.582c-2.8008-2.7578-10.5-2.0273-13.301 0.72656-22.922 22.543-17.254 16.254-26.789 26.691-3.1055 3.3984-2.5547 10.598 0.76172 13.793 9.4141 9.0859 27.07 26.805 27.07 26.805s-6.9844 11.48-9.5664 17.652c-2.5352 6.0664-5.7461 18.863-5.7461 18.863s-25.223-0.5-37.84-0.29688c-4.7773 0.0742-10.805 4.043-10.824 8.6367-0.02734 7.2891-0.12891 24.766-0.22266 34.938s5.6641 13.805 10.945 13.777c15.461-0.0781 37.785 0.17578 37.785 0.17578s3.5547 12.887 6.082 19.059c2.4805 6.0586 8.8711 17.527 8.8711 17.527s-17.469 16.793-25.793 26.164c-3.3281 3.7422-4.1328 11.27-0.78906 14.996 8.9219 9.9375 17.895 18.57 26.344 25.953 4.0508 3.5391 12.082 1.6875 16.008-1.9883 6.8789-6.4414 24.754-25.387 24.754-25.387s11.441 6.0898 17.414 8.582c3.1328 1.3086 7.9414 2.9726 11.969 4.3125 4.0312 1.3398 7.2734 2.3516 7.2734 2.3516s-4e-3 6.0508 0 13.66c4e-3 7.6133 0.0117 16.785 0.0469 23.023 0.0117 2.4961 1.1328 5.3867 2.875 7.6562 1.7383 2.2734 4.1016 3.9219 6.5976 3.9453 11.883 0.0937 25.223 0.0625 38.395-8e-3 2.2305-8e-3 4.5625-1.6797 6.332-3.9062 1.7695-2.2266 2.9805-5.0039 2.9688-7.2344-0.0273-6.1406 0.0117-15.887 0.0586-24.098 0.0508-8.2109 0.10547-14.887 0.10547-14.887s3.1953-0.71093 7.1367-1.7461c3.9414-1.0352 8.6289-2.3984 11.613-3.6953 2.8242-1.2266 6.793-3.5898 10.055-5.6484 3.2617-2.0586 5.8203-3.8086 5.8203-3.8086s5.1562 5.207 11.34 11.387c6.1797 6.1758 13.387 13.32 17.477 17.191 1.8047 1.7109 4.4688 2.6094 7.3008 2.4766 2.832-0.13281 5.832-1.3008 8.3203-3.7188 5.2188-5.0781 9.6445-9.3594 13.602-13.23 3.957-3.8711 7.4492-7.332 10.793-10.77 1.6406-1.6875 2.5781-4.3789 2.6953-7.0664 0.11328-2.6914-0.59375-5.3789-2.2422-7.0625-4.6211-4.7266-11.922-12.016-18.066-18.125-6.1445-6.1055-11.133-11.035-11.133-11.035s1.7656-2.6797 3.8281-6.0977c2.0625-3.4219 4.4219-7.582 5.6094-10.539 1.1992-2.9844 2.3828-7.6562 3.2617-11.586 0.88282-3.9297 1.4648-7.1133 1.4648-7.1133s27.691 0.63672 40.316 0.19141c4.6953-0.16406 10.582-4.4219 10.742-9.1172 0.47656-13.812 0.5-24.891 0.14063-37.355-0.21875-7.5391-5.3398-10.629-13.215-10.562-10.23 0.0898-37.352 0.45703-37.352 0.45703s-2.9219-12.395-5.2812-18.281c-2.418-6.0391-9.0312-17.305-9.0312-17.305s18.379-18.352 27.32-27.766c6.0977-6.418 2.3242-14.223 0.25-16.102-8.6133-7.8047-17.457-17.602-24.777-24.543-3.5781-3.3984-11.145-3.7695-14.797-0.44922-7.4688 6.7891-17.957 18.242-27.652 27.875 0 0-11.543-6.7031-17.719-9.1719-5.8281-2.332-18.082-5.2617-18.082-5.2617s0.46094-26.676 4e-3 -40.105c-0.15625-4.582-6.2617-9.1523-10.84-9.3789-4.0353-0.1756-8.3595-0.24591-12.887-0.24591zm-4.9766 106.32c34.48 0 62.434 27.953 62.434 62.434s-27.953 62.434-62.434 62.434-62.434-27.953-62.434-62.434 27.953-62.434 62.434-62.434z" fill="#5e95f3" fill-rule="evenodd"/><use width="100%" height="100%" mask="url(#b)" xlink:href="#a"/><path d="m192 105.32c-47.875 0-86.684 38.809-86.684 86.684s38.809 86.684 86.684 86.684 86.684-38.809 86.684-86.684-38.809-86.684-86.684-86.684zm0 30.594c30.977 0 56.09 25.113 56.09 56.09s-25.113 56.09-56.09 56.09-56.09-25.113-56.09-56.09 25.113-56.09 56.09-56.09z" fill="#2251a0"/><path d="m192 118.33c-40.686 0-73.667 32.981-73.667 73.667s32.981 73.667 73.667 73.667 73.667-32.981 73.667-73.667-32.981-73.667-73.667-73.667zm0 26c26.325 0 47.667 21.342 47.667 47.667s-21.342 47.667-47.667 47.667-47.667-21.342-47.667-47.667 21.342-47.667 47.667-47.667z" fill="#2b62c0" stroke-width=".84983"/></g><path transform="scale(.75)" d="m256 130.43c-63.833 0-115.58 51.745-115.58 115.58s51.745 115.58 115.58 115.58 115.58-51.745 115.58-115.58-51.747-115.58-115.58-115.58zm0 7.6699c59.597 0 107.91 48.311 107.91 107.91s-48.311 107.91-107.91 107.91-107.91-48.311-107.91-107.91 48.311-107.91 107.91-107.91z" opacity=".3" stroke-width="1.3333"/></svg>
